X: 1
T: Lonesome Boatman, The
M: 4/4
L: 1/8
R: reel
K: Dmaj
fe f4 fg|fefB B3 A|Bc d4 dd|cBAF F4|F8|
fe f4 fg|fefB B3 A|Bc d4 de|d/c/B c4 F2|A2 B6|B8 :|
f2 ^g6|g8|e2 f6|f8|f2 ^g6|g8|
e2 f6|f6 ff|f/e/d/c/ d6|e/d/c/B/ c4 cB|BA F6|F8|
fe f4 fg|fefB B3 A|Bc d4 de|d/c/B c4 F2|A2 B6|B8|
